public/nuxt_images/errors/403.svg

<svg width="175" height="145" viewBox="0 0 175 145" fill="none" xmlns="http://www.w3.org/2000/svg">
<path d="M165.044 51.8247C165.914 56.3536 166.784 60.7084 167.567 65.1503C167.741 66.2825 167.915 67.5018 167.915 68.6341C168.002 69.4179 167.915 70.2018 167.393 70.8114C166.958 71.4211 166.349 71.9437 165.653 72.205C163.565 72.9888 161.302 73.5985 159.04 74.0339C156.343 74.4694 154.777 73.3372 154.167 70.6372C153.21 66.6309 152.514 62.6245 151.731 58.6181C151.557 57.573 151.383 56.4407 151.122 55.3956C151.122 55.0472 150.6 54.873 150.252 54.6118L149.817 54.786C149.991 56.0053 150.252 57.2246 150.426 58.3568C150.774 61.4052 151.209 64.4535 151.383 67.5018C151.557 70.0276 150.426 71.5953 147.99 72.292C146.336 72.7275 144.596 72.9888 142.856 73.0759C140.42 73.2501 139.028 72.1178 138.418 69.6792C137.548 66.1954 136.852 62.7116 136.069 59.3149C135.895 58.7052 135.721 58.0956 135.547 57.3988L125.715 59.3149C120.146 60.36 114.577 61.4923 109.009 62.6245C108.573 62.6245 108.139 62.7987 107.79 62.9729C107.442 63.2342 107.181 63.4955 107.007 63.9309C103.614 70.8114 101.874 72.4662 94.8258 75.6017C94.3037 79.9564 92.7374 84.0499 90.2141 87.6208C90.7362 88.2304 91.2583 88.753 91.7804 89.3627L126.498 125.072C127.107 125.594 127.542 126.204 128.064 126.814C129.195 128.468 129.195 129.949 128.064 131.081C127.455 131.691 126.672 131.952 125.802 131.952C124.932 131.952 124.149 131.604 123.54 131.081C122.582 130.21 121.625 129.252 120.668 128.207C120.32 127.772 120.059 127.336 119.798 126.901C118.841 127.597 118.145 128.033 117.449 128.555C114.751 130.733 112.054 132.91 109.357 135.088C106.485 137.352 104.919 137.265 102.396 134.652C100.394 132.562 98.3932 130.384 96.3919 128.207C94.0426 125.681 94.2167 123.765 96.9141 121.588C99.4374 119.585 101.961 117.581 104.484 115.578C105.18 115.056 105.789 114.533 106.659 113.749C99.6984 106.52 92.8244 99.4657 85.9505 92.4981C83.9493 93.7174 82.2091 94.9367 80.3819 95.8948C77.5105 97.4625 74.2911 98.1593 70.9846 97.898C68.6353 97.7238 66.373 96.8528 64.5458 95.3722C62.7185 93.8916 61.2394 91.9755 60.5433 89.711L55.9316 89.1885C55.2355 90.2336 54.6265 91.2788 53.9304 92.1497C52.4512 94.1529 50.624 95.7206 48.4487 96.9399C46.2734 98.1593 43.9241 98.856 41.4878 99.0302C40.8787 99.0302 40.3566 99.2044 39.8345 99.5528C39.3125 99.9012 38.9645 100.337 38.6165 100.772C36.3542 104.691 34.0048 108.524 31.8295 112.443C26.4348 122.023 21.0402 131.517 15.6455 141.097C15.2104 141.881 14.7754 142.578 14.2533 143.274C13.8182 143.971 13.2091 144.407 12.426 144.755C11.6429 145.016 10.8598 145.103 10.0767 144.842C9.38061 144.668 8.68457 144.233 8.1625 143.623C7.64043 143.013 7.37937 142.316 7.37937 141.533C7.03133 138.833 6.7703 136.22 6.50926 133.52C6.24823 130.907 5.81315 128.033 5.29108 125.333C5.11706 124.288 5.11702 123.243 5.46506 122.285C5.81311 121.327 6.42219 120.456 7.20529 119.846C8.33644 118.801 9.64167 117.843 10.8598 116.798C10.3378 115.143 9.90272 113.575 9.46767 112.007C8.77158 109.22 9.46758 107.566 11.9909 105.998C13.3831 105.127 14.8623 104.343 16.3415 103.559C17.1246 103.124 17.8208 102.688 18.6039 102.253C18.4298 101.121 18.3428 100.075 18.1688 99.1173C17.9948 97.9851 18.1688 96.7657 18.6039 95.8077C19.1259 94.7626 19.996 93.8916 20.9531 93.369C21.9973 92.7594 23.0414 91.9755 24.1725 91.1917C21.7362 87.3595 20.8661 82.6564 21.7362 78.1274C22.6934 73.7727 25.1297 69.9405 28.6972 67.3276C27.74 64.018 26.5218 60.7955 25.9127 57.573C22.9543 41.112 26.6959 26.6543 39.2255 15.0706C45.4033 9.23526 53.5823 6.09984 62.0224 6.36112C70.7236 6.53531 78.2935 9.84492 84.6454 15.8545C90.6492 21.6027 94.7388 28.9187 96.566 37.0186C96.566 37.7153 96.914 38.325 97.262 38.8476C97.6101 39.3701 98.1322 39.8056 98.7413 40.154C101.091 41.4604 103.092 43.3765 104.571 45.641C104.832 46.1636 105.354 46.599 105.876 46.8603C106.485 47.1216 107.094 47.1216 107.703 46.8603C114.925 45.3797 122.234 43.812 129.456 42.4185L166.61 34.9283C169.569 34.3186 172.005 35.625 172.875 38.5863C173.571 41.112 174.093 43.6378 174.441 46.2506C174.789 48.3409 173.571 49.8215 171.396 50.3441C169.83 50.6925 168.263 50.9538 166.784 51.2151C166.262 51.3022 165.827 51.5634 165.131 51.7376L165.044 51.8247ZM89.9532 37.0186C88.2999 29.5284 82.4702 20.1221 73.421 15.6803C69.7665 13.7642 65.764 12.8061 61.6745 12.8061C57.5849 12.8061 53.5824 13.7642 49.9279 15.5932C45.2293 17.8577 41.2268 21.4285 38.2684 25.7833C32.1776 34.667 30.1763 44.5087 31.9165 55.1343C32.3516 58.4439 33.3957 61.6665 34.9619 64.5406C40.8787 63.3213 46.1864 64.3664 50.885 68.0244C55.5837 71.6824 57.6719 76.9081 57.4979 83.0047H59.4121C59.4991 83.0047 59.6731 82.8305 59.8471 82.7434C61.1523 74.9049 65.5029 69.0695 71.8548 64.6277C66.7211 51.8247 74.2041 37.6282 89.9532 37.0186ZM12.774 131.952H13.2091C13.4701 131.691 13.7312 131.255 13.9922 130.907C18.9519 122.197 23.8245 113.488 28.7841 104.691C30.5244 101.643 32.2646 98.5076 33.9178 95.4593C35.136 93.1948 36.7892 92.3239 39.1385 92.5852C41.1398 92.8465 43.228 92.4981 44.9682 91.54C46.7955 90.582 48.2747 89.1885 49.2318 87.4466L44.0981 84.8337C41.0527 86.4885 39.3995 86.5756 37.5723 85.095C35.832 83.6144 35.484 81.6983 36.5282 78.65L32.0906 73.0759C30.5244 74.1211 29.3063 75.6887 28.6102 77.5177C27.131 81.5241 27.566 85.2692 30.3504 88.5788C32.3517 90.9304 32.2646 92.9336 30.1763 94.7626C29.0452 95.8077 27.74 96.7657 26.4349 97.5496C25.1297 98.3334 24.3466 99.2044 24.7816 100.772C24.8687 101.12 24.7816 101.556 24.7816 101.991C25.2167 105.04 23.8245 106.956 21.2142 108.262C19.909 108.959 18.6039 109.656 17.2987 110.44C16.7766 110.701 16.3415 111.136 15.8194 111.485C16.3415 112.791 16.6895 114.011 17.2116 115.143C17.7337 116.188 17.8207 117.32 17.5597 118.365C17.2986 119.498 16.6895 120.456 15.8194 121.065C14.7753 122.023 13.5572 122.807 12.6001 123.852C12.339 124.026 12.1649 124.288 11.9909 124.549C11.8169 124.81 11.7299 125.072 11.7299 125.42C12.078 127.684 12.513 129.862 12.861 131.952H12.774ZM91.4323 44.2475C86.1246 42.5926 79.9468 45.7281 77.6845 51.128C76.4663 54.1763 76.3794 57.573 77.4235 60.7084C78.4676 63.8438 80.6429 66.4567 83.5143 68.1115C86.1246 69.5921 89.257 70.0276 92.2154 69.4179C95.1738 68.7212 97.7842 66.9792 99.5244 64.5406C103.179 59.4891 101.874 50.7796 97.9582 48.1667C97.6971 51.2151 97.436 54.0892 97.262 56.9633C97.088 58.7052 96.392 60.2729 95.1738 61.4923C94.0427 62.7116 92.4764 63.5826 90.7362 63.8438C89.083 64.1922 87.4298 63.9309 85.8636 63.1471C84.3844 62.3632 83.1662 61.1439 82.4701 59.6633C80.8169 56.2666 82.2961 51.4763 85.5155 50.257C87.4297 49.5602 89.344 49.0377 91.4323 48.428V44.0733V44.2475ZM166.958 41.5475L108.138 53.4795V55.1343C108.138 55.4827 108.312 55.8311 108.487 56.1795L167.48 44.5087L166.871 41.5475H166.958ZM66.7211 82.6564C72.2898 81.437 77.3364 78.5629 81.1649 74.4694L75.5092 70.2018C71.0716 72.6404 67.2431 77.8661 66.7211 82.6564ZM87.5168 77.4307C82.1221 83.3531 75.0741 87.4466 67.2431 89.1885C68.0262 90.2336 69.1574 90.9304 70.3756 91.3659C71.5938 91.8013 72.8989 91.8013 74.117 91.4529C78.8156 90.4078 82.2961 87.6208 85.0804 83.7015C86.5596 81.9596 87.4298 79.7822 87.5168 77.5177V77.4307ZM110.923 118.801L106.833 122.023L102.396 125.507L106.137 129.426L114.925 122.372L110.923 118.801ZM50.624 80.9145C50.972 74.9049 44.2721 69.4179 38.4424 70.8985C41.4878 75.3404 45.7513 78.8242 50.624 81.0015V80.9145ZM159.91 67.3276C161.302 66.4567 161.389 66.4567 161.215 65.4115C160.954 63.8438 160.606 62.3632 160.345 60.7955C159.91 58.531 159.388 56.1795 158.953 53.915C158.779 53.1311 158.344 52.8699 157.387 53.3924C158.17 58.0085 159.04 62.5374 159.91 67.4147V67.3276ZM142.421 55.8311C142.421 58.8794 143.813 64.9761 144.77 66.0212C144.77 63.5826 143.9 57.3117 143.378 56.3537C143.291 56.1795 142.856 56.0924 142.421 55.9182V55.8311Z" fill="#3558A2"/>
<path d="M8.59833 25.5228C9.12039 23.6938 9.72945 21.8648 10.4255 20.1229C12.4268 15.594 15.5592 11.5876 19.4747 8.45219C20.5189 7.66833 21.737 6.97158 22.9552 6.44901C23.6513 6.10063 24.4344 6.10062 25.1305 6.27481C25.8266 6.5361 26.4357 6.97158 26.8707 7.66834C27.6538 9.06186 27.3057 10.4554 25.9135 11.6747C25.4784 12.1102 24.8694 12.4586 24.4343 12.8069C19.7357 16.4649 16.2553 20.8197 14.9501 26.7421C14.9501 27.0034 14.8631 27.1776 14.7761 27.4389C14.08 29.355 12.7748 30.226 11.0346 29.9647C9.46838 29.7034 8.51123 28.3099 8.51123 25.5228H8.59833Z" fill="#3558A2"/>
<path d="M0.505958 16.4645C0.505958 16.1161 0.76697 15.2451 1.028 14.3742C2.59421 9.58397 4.76947 5.14215 8.94601 2.09382C9.99015 1.30997 11.0343 0.700297 12.2525 0.264822C12.8616 0.00353653 13.4706 -0.0835691 14.0797 0.0906209C14.6888 0.264811 15.2109 0.613202 15.646 1.13577C16.081 1.65834 16.342 2.35511 16.342 2.96477C16.342 3.57444 16.081 4.27118 15.646 4.79375C15.2109 5.40341 14.6888 5.83889 14.0797 6.18727C10.3382 8.45174 8.59799 12.1098 7.1188 16.029C6.85776 16.7258 6.77079 17.4225 6.50976 18.0322C6.33574 18.8161 5.81369 19.4257 5.1176 19.8612C4.42151 20.2967 3.63832 20.4709 2.85522 20.2967C1.28902 19.9483 0.418946 18.729 0.505958 16.2903V16.4645Z" fill="#3558A2"/>
</svg>

<svg xmlns="http://www.w3.org/2000/svg" width="175" height="145" fill="none" viewBox="0 0 175 145"><path fill="#3558a2" d="M165.044 51.825c.87 4.529 1.74 8.883 2.523 13.325.174 1.132.348 2.352.348 3.484.087.784 0 1.568-.522 2.177-.435.61-1.044 1.133-1.74 1.394-2.088.784-4.351 1.394-6.613 1.829-2.697.435-4.263-.697-4.873-3.397-.957-4.006-1.653-8.013-2.436-12.019-.174-1.045-.348-2.177-.609-3.222 0-.349-.522-.523-.87-.784l-.435.174c.174 1.22.435 2.439.609 3.57.348 3.05.783 6.098.957 9.146.174 2.526-.957 4.093-3.393 4.79a25.2 25.2 0 0 1-5.134.784c-2.436.174-3.828-.958-4.438-3.397-.87-3.484-1.566-6.967-2.349-10.364-.174-.61-.348-1.22-.522-1.916l-9.832 1.916c-5.569 1.045-11.138 2.177-16.706 3.31-.436 0-.87.174-1.219.348-.348.261-.609.523-.783.958-3.393 6.88-5.133 8.535-12.181 11.67a26.1 26.1 0 0 1-4.612 12.02c.522.61 1.044 1.132 1.566 1.742l34.718 35.709c.609.522 1.044 1.132 1.566 1.742 1.131 1.654 1.131 3.135 0 4.267-.609.61-1.392.871-2.262.871s-1.653-.348-2.262-.871a45 45 0 0 1-2.872-2.874c-.348-.435-.609-.871-.87-1.306-.957.696-1.653 1.132-2.349 1.654l-8.092 6.533c-2.872 2.264-4.438 2.177-6.961-.436-2.002-2.09-4.003-4.268-6.004-6.445-2.35-2.526-2.175-4.442.522-6.619l7.57-6.01c.696-.522 1.305-1.045 2.175-1.829a2439 2439 0 0 0-20.708-21.25c-2.002 1.218-3.742 2.438-5.57 3.396a16.73 16.73 0 0 1-9.396 2.003c-2.35-.174-4.612-1.045-6.44-2.526-1.827-1.48-3.306-3.397-4.002-5.661l-4.611-.522c-.697 1.045-1.306 2.09-2.002 2.96-1.479 2.004-3.306 3.572-5.481 4.79a16.6 16.6 0 0 1-6.961 2.091c-.61 0-1.131.174-1.654.523-.522.348-.87.784-1.218 1.219-2.262 3.919-4.611 7.752-6.786 11.671-5.395 9.58-10.79 19.074-16.184 28.654-.436.784-.87 1.481-1.393 2.177-.435.697-1.044 1.133-1.827 1.481-.783.261-1.566.348-2.35.087-.695-.174-1.391-.609-1.914-1.219a3.12 3.12 0 0 1-.783-2.09c-.348-2.7-.609-5.313-.87-8.013a93 93 0 0 0-1.218-8.187c-.174-1.045-.174-2.09.174-3.048s.957-1.829 1.74-2.439c1.131-1.045 2.437-2.003 3.655-3.048-.522-1.655-.957-3.223-1.392-4.791-.696-2.787 0-4.441 2.523-6.009 1.392-.871 2.871-1.655 4.35-2.439.784-.435 1.48-.871 2.263-1.306-.174-1.132-.261-2.178-.435-3.136-.174-1.132 0-2.351.435-3.31a5.8 5.8 0 0 1 2.35-2.438c1.043-.61 2.087-1.394 3.218-2.177-2.436-3.832-3.306-8.536-2.436-13.065.957-4.354 3.394-8.186 6.961-10.8-.957-3.309-2.175-6.532-2.784-9.754-2.959-16.461.783-30.919 13.312-42.502C45.403 9.235 53.582 6.1 62.022 6.36c8.702.174 16.271 3.484 22.623 9.494 6.004 5.748 10.094 13.064 11.921 21.164 0 .696.348 1.306.696 1.829s.87.958 1.48 1.306c2.349 1.306 4.35 3.222 5.829 5.487.261.523.783.958 1.305 1.22a2.23 2.23 0 0 0 1.827 0c7.222-1.481 14.531-3.049 21.753-4.442l37.154-7.49c2.959-.61 5.395.696 6.265 3.657a57 57 0 0 1 1.566 7.665c.348 2.09-.87 3.57-3.045 4.093-1.566.349-3.133.61-4.612.871-.522.087-.957.348-1.653.523zm-75.09-14.806C88.3 29.529 82.47 20.122 73.42 15.68a25.2 25.2 0 0 0-11.747-2.874c-4.09 0-8.092.958-11.746 2.787-4.699 2.265-8.701 5.836-11.66 10.19-6.09 8.884-8.092 18.726-6.352 29.351a27.2 27.2 0 0 0 3.046 9.407c5.917-1.22 11.224-.175 15.923 3.483s6.787 8.884 6.613 14.98h1.914c.087 0 .261-.174.435-.26 1.305-7.84 5.656-13.674 12.008-18.116-5.134-12.803 2.35-27 18.098-27.61m-77.18 94.933h.435c.261-.261.522-.697.783-1.045 4.96-8.71 9.833-17.419 14.792-26.216 1.74-3.048 3.48-6.183 5.134-9.232 1.218-2.264 2.871-3.135 5.22-2.874 2.002.262 4.09-.087 5.83-1.045 1.827-.958 3.307-2.352 4.264-4.093l-5.134-2.613c-3.045 1.654-4.698 1.742-6.526.261-1.74-1.48-2.088-3.397-1.044-6.445l-4.437-5.574c-1.567 1.045-2.785 2.613-3.48 4.442-1.48 4.006-1.045 7.751 1.74 11.06 2 2.352 1.914 4.356-.175 6.185a23.2 23.2 0 0 1-3.741 2.787c-1.305.783-2.088 1.654-1.653 3.222.087.348 0 .784 0 1.219.435 3.049-.957 4.965-3.568 6.271-1.305.697-2.61 1.394-3.915 2.178-.522.261-.957.696-1.48 1.045.522 1.306.87 2.526 1.393 3.658a4.64 4.64 0 0 1 .348 3.222c-.261 1.133-.87 2.091-1.74 2.7-1.045.958-2.263 1.742-3.22 2.787-.261.174-.435.436-.61.697a1.47 1.47 0 0 0-.26.871c.348 2.264.783 4.442 1.131 6.532zm78.658-87.704c-5.307-1.655-11.485 1.48-13.748 6.88a13.95 13.95 0 0 0-.26 9.58c1.044 3.136 3.219 5.749 6.09 7.404 2.61 1.48 5.743 1.916 8.701 1.306 2.959-.697 5.57-2.439 7.31-4.877 3.654-5.052 2.349-13.761-1.567-16.374-.26 3.048-.522 5.922-.696 8.796-.174 1.742-.87 3.31-2.088 4.53a7.64 7.64 0 0 1-4.438 2.35c-1.653.35-3.306.088-4.872-.696-1.48-.784-2.698-2.003-3.394-3.484-1.653-3.396-.174-8.187 3.046-9.406 1.914-.697 3.828-1.22 5.916-1.829v-4.355zm75.526-2.7-58.82 11.932v1.654c0 .349.174.697.349 1.045l58.993-11.67-.609-2.962zM66.721 82.655c5.569-1.219 10.615-4.093 14.444-8.187l-5.656-4.267c-4.437 2.438-8.266 7.664-8.788 12.454m20.796-5.225a38.75 38.75 0 0 1-20.274 11.758c.783 1.045 1.914 1.741 3.133 2.177 1.218.435 2.523.435 3.741.087 4.699-1.045 8.18-3.832 10.963-7.752 1.48-1.741 2.35-3.919 2.437-6.183zm23.406 41.37-4.09 3.222-4.437 3.484 3.741 3.919 8.788-7.054zM50.624 80.915c.348-6.01-6.352-11.497-12.182-10.017 3.046 4.442 7.31 7.926 12.182 10.103zM159.91 67.328c1.392-.871 1.479-.871 1.305-1.916-.261-1.568-.609-3.049-.87-4.617-.435-2.264-.957-4.616-1.392-6.88-.174-.784-.609-1.045-1.566-.523.783 4.616 1.653 9.145 2.523 14.023zM142.421 55.83c0 3.048 1.392 9.145 2.349 10.19 0-2.438-.87-8.71-1.392-9.667-.087-.175-.522-.262-.957-.436zM8.598 25.523a56 56 0 0 1 1.827-5.4c2.002-4.529 5.134-8.535 9.05-11.67a17.2 17.2 0 0 1 3.48-2.004c.696-.348 1.48-.348 2.176-.174.696.261 1.305.697 1.74 1.393.783 1.394.435 2.787-.957 4.007-.436.435-1.045.784-1.48 1.132-4.698 3.658-8.179 8.013-9.484 13.935 0 .261-.087.436-.174.697-.696 1.916-2.001 2.787-3.741 2.526-1.567-.262-2.524-1.655-2.524-4.442zM.506 16.465c0-.349.261-1.22.522-2.09C2.594 9.583 4.769 5.141 8.946 2.093 9.99 1.31 11.034.7 12.253.264c.609-.26 1.218-.348 1.827-.173q.913.26 1.566 1.045c.435.522.696 1.22.696 1.829 0 .61-.261 1.306-.696 1.829a4.8 4.8 0 0 1-1.566 1.393c-3.742 2.265-5.482 5.923-6.961 9.842-.261.697-.348 1.393-.61 2.003-.173.784-.695 1.394-1.391 1.83-.696.435-1.48.609-2.263.435C1.29 19.948.42 18.729.506 16.29z"/></svg>
